icons/op-gitlab-pipeline-status-canceled-16.svg

<svg width="16" height="16" viewBox="0 0 16 16" fill="none" xmlns="http://www.w3.org/2000/svg">
<path fill-rule="evenodd" clip-rule="evenodd" d="M2.34315 2.34315C0.842855 3.84344 0 5.87827 0 8C0 10.1217 0.842855 12.1566 2.34315 13.6569C3.84344 15.1571 5.87827 16 8 16C10.1217 16 12.1566 15.1571 13.6569 13.6569C15.1571 12.1566 16 10.1217 16 8C16 5.87827 15.1571 3.84344 13.6569 2.34315C12.1566 0.842855 10.1217 0 8 0C5.87827 0 3.84344 0.842855 2.34315 2.34315ZM14.3352 5.37589C14.6798 6.20783 14.8571 7.09951 14.8571 8C14.8571 9.81863 14.1347 11.5628 12.8487 12.8487C11.5628 14.1347 9.81863 14.8571 8 14.8571C6.18137 14.8571 4.43723 14.1347 3.15127 12.8487C1.8653 11.5628 1.14286 9.81863 1.14286 8C1.14286 7.09951 1.32022 6.20783 1.66483 5.37589C2.00943 4.54394 2.51452 3.78801 3.15127 3.15127C3.78801 2.51452 4.54394 2.00943 5.37589 1.66483C6.20783 1.32022 7.09951 1.14286 8 1.14286C8.90049 1.14286 9.79217 1.32022 10.6241 1.66483C11.4561 2.00943 12.212 2.51452 12.8487 3.15127C13.4855 3.78801 13.9906 4.54394 14.3352 5.37589Z" fill="black"/>
<path d="M5.94286 4.34286L11.5429 9.94286C11.7714 10.1714 11.7714 10.5143 11.5429 10.7429L10.7429 11.5429C10.5143 11.7714 10.1714 11.7714 9.94286 11.5429L4.34286 5.94286C4.11429 5.71429 4.11429 5.37143 4.34286 5.14286L5.14286 4.34286C5.37143 4.11429 5.71429 4.11429 5.94286 4.34286Z" fill="black"/>
</svg>

<svg xmlns="http://www.w3.org/2000/svg" width="16" height="16" viewBox="0 0 16 16"><path d="M2.343 2.343a8 8 0 1 1 11.314 11.315A8 8 0 0 1 2.343 2.343Zm11.992 3.033a6.846 6.846 0 0 0-3.711-3.711 6.851 6.851 0 0 0-5.248 0 6.862 6.862 0 0 0-3.711 3.711 6.857 6.857 0 1 0 12.67 0Z"/><path d="m5.943 4.343 5.6 5.6a.553.553 0 0 1 0 .8l-.8.8a.553.553 0 0 1-.8 0l-5.6-5.6a.552.552 0 0 1 0-.8l.8-.8a.552.552 0 0 1 .8 0Z"/></svg>
